!!!COM: (Achille-) Claude Debussy
!!!OTL: [T169_Deb-w13p37m77-90]
**kern	**dynam	**kern	**dynam	**kern	**dynam	**kern	**dynam
*grp:A	*grp:A	*grp:B	*grp:B	*grp:B	*grp:B	*grp:B	*grp:B
*part4	*part4	*part3	*part3	*part2	*part2	*part1	*part1
*staff4	*	*staff3	*	*staff2	*	*staff1	*
*I"Violoncello	*	*I"Viola	*	*I"Violin II	*	*I"Violin I	*
*I'Vc.	*	*I'Vla.	*	*I'Vln. II	*	*I'Vln. I	*
*clefF4	*	*clefC3	*	*clefG2	*	*clefG2	*
*k[b-e-]	*	*k[b-e-]	*	*k[b-e-]	*	*k[b-e-]	*
*B-:	*	*B-:	*	*B-:	*	*B-:	*
*M4/4	*	*M4/4	*	*M4/4	*	*M4/4	*
=77	=77	=77	=77	=77	=77	=77	=77
!	!	!	!	!	!	!LO:TX:t=[[half]=132]	!
*tuplet	*	*	*	*	*	*	*
!LO:TUP:xbr	!	!	!	!	!	!	!
(6GG-X	p	2ryy	4ryy	1ryy	4ryy	4.ryy	4ryy
6AA-X	.	.	.	.	.	.	.
6GG-)	.	.	.	.	.	.	.
.	.	.	.	.	.	8ryy	.
!LO:TUP:xbr	!	!	!	!	!	!	!
(6AA-	.	2ryy	.	.	.	4.ryy	.
6GG-	.	.	.	.	.	.	.
6AA-)	.	.	.	.	.	.	.
.	.	.	.	.	.	8ryy	.
=78	=78	=78	=78	=78	=78	=78	=78
*Xtuplet	*	*	*	*	*	*	*
(6GG-X	.	2ryy	.	1ryy	.	2ryy	.
6AA-X	.	.	.	.	.	.	.
6GG-)	.	.	.	.	.	.	.
(6AA-	.	2ryy	.	.	.	4ryy	.
6GG-	.	.	.	.	.	.	.
.	.	.	.	.	.	4ryy	.
6AA-)	.	.	.	.	.	.	.
=79	=79	=79	=79	=79	=79	=79	=79
(6GG-X	.	2ryy	.	1ryy	.	4.ryy	.
6AA-X	.	.	.	.	.	.	.
6GG-)	.	.	.	.	.	.	.
.	.	.	.	.	.	8ryy	.
(6AA-	.	2ryy	.	.	.	4.ryy	.
6GG-	.	.	.	.	.	.	.
6AA-)	.	.	.	.	.	.	.
.	.	.	.	.	.	8ryy	.
=80	=80	=80	=80	=80	=80	=80	=80
(6GG-X	.	2ryy	.	1ryy	.	1ryy	.
6AA-X	.	.	.	.	.	.	.
6GG-)	.	.	.	.	.	.	.
(6AA-	.	2ryy	.	.	.	.	.
6GG-	.	.	.	.	.	.	.
6AA-)	.	.	.	.	.	.	.
!!linebreak:original
=81	=81	=81	=81	=81	=81	=81	=81
!	!LO:HP:t=poco a poco cresc.	!	!LO:HP:t=poco a poco cresc.	!	!LO:HP:t=poco a poco %s	!	!LO:HP:t=poco a poco %s
(6GG-X	<	2ryy	4ryy	4.ryy	4ryy	1ryy	4ryy
6AA-X	.	.	.	.	.	.	.
6GG-)	.	.	.	.	.	.	.
.	.	.	.	8ryy	.	.	.
(6AA-	.	2ryy	.	4.ryy	.	.	.
6GG-	.	.	.	.	.	.	.
6AA-)	.	.	.	.	.	.	.
.	.	.	.	8ryy	.	.	.
=82	=82	=82	=82	=82	=82	=82	=82
*grp:B	*grp:B	*grp:A	*grp:A	*	*	*	*
!	!	!LO:TUP:xbr	!	!	!	!	!
1ryy	.	(6D-X	.	2ryy	.	1ryy	.
.	.	6E-	.	.	.	.	.
.	.	6D-)	.	.	.	.	.
!	!	!LO:TUP:xbr	!	!	!	!	!
.	.	(6E-	.	4ryy	.	.	.
.	.	6D-	.	.	.	.	.
.	.	.	.	4ryy	.	.	.
.	.	6E-)	.	.	.	.	.
=83	=83	=83	=83	=83	=83	=83	=83
*	*	*Xtuplet	*	*	*	*	*
1ryy	.	(6D-X	.	2ryy	.	1ryy	.
.	.	6E-	.	.	.	.	.
.	.	6D-)	.	.	.	.	.
.	.	(6E-	.	4ryy	.	.	.
.	.	6D-	.	.	.	.	.
.	.	.	.	4ryy	.	.	.
.	.	6E-)	.	.	.	.	.
=84	=84	=84	=84	=84	=84	=84	=84
1ryy	4ryy	(6D-X	<	2ryy	4ryy	1ryy	4ryy
.	.	6E-	.	.	.	.	.
.	.	6D-)	.	.	.	.	.
.	.	(6E-	.	4ryy	.	.	.
.	.	6D-	.	.	.	.	.
.	.	.	.	4ryy	.	.	.
.	.	6E-)	.	.	.	.	.
=85	=85	=85	=85	=85	=85	=85	=85
2.ryy	.	(6D-X	.	2ryy	.	1ryy	.
.	.	6E-	.	.	.	.	.
.	.	6F)	.	.	.	.	.
.	.	(6A	.	4ryy	.	.	.
.	.	6c	.	.	.	.	.
4ryy	4ryy	.	.	4ryy	.	.	.
.	.	6e-)	[	.	4ryy	.	4ryy
!!linebreak:original
=86	=86	=86	=86	=86	=86	=86	=86
.	.	.	.	.	.	16ryy	4ryy
.	.	.	.	.	.	16ryy	.
*tuplet	*	*	*	*	*	*	*
*grp:A	*grp:A	*grp:B	*grp:B	*	*	*	*
!LO:TUP:xbr	!	!	!	!	!	!	!
(6B-	f	4.ryy	4ryy	8ryy	4ryy	4.ryy	.
.	.	.	.	8ryy	.	.	.
6d-X	.	.	.	.	.	.	.
.	.	.	.	8ryy	.	.	.
6B-)	.	.	.	.	.	.	.
.	.	8ryy	.	8ryy	.	8ryy	.
!LO:TUP:xbr	!	!	!	!	!	!	!
(6A-X	.	4.ryy	.	8ryy	.	4.ryy	.
.	.	.	.	8ryy	.	.	.
6c	.	.	.	.	.	.	.
.	.	.	.	8ryy	.	.	.
6A-)	.	.	.	.	.	.	.
.	.	8ryy	.	8ryy	.	8ryy	.
=87	=87	=87	=87	=87	=87	=87	=87
!LO:TUP:xbr	!	!	!	!	!	!	!
(6E-	.	2ryy	.	8ryy	.	2ryy	.
.	.	.	.	8ryy	.	.	.
6B-	.	.	.	.	.	.	.
.	.	.	.	8ryy	.	.	.
6E-)	.	.	.	.	.	.	.
.	.	.	.	8ryy	.	.	.
*grp:B	*grp:B	*	*	*	*	*	*
4ryy	.	4ryy	.	8ryy	.	4ryy	.
.	.	.	.	8ryy	.	.	.
4ryy	.	4ryy	.	8ryy	.	4ryy	.
.	.	.	.	8ryy	.	.	.
=88	=88	=88	=88	=88	=88	=88	=88
.	.	.	.	.	.	16ryy	.
.	.	.	.	.	.	16ryy	.
*grp:A	*grp:A	*	*	*	*	*	*
!LO:TUP:xbr	!	!	!	!	!	!	!
(6B-	.	4.ryy	.	8ryy	.	4.ryy	.
.	.	.	.	8ryy	.	.	.
6d-X	.	.	.	.	.	.	.
.	.	.	.	8ryy	.	.	.
6B-)	.	.	.	.	.	.	.
.	.	8ryy	.	8ryy	.	8ryy	.
!LO:TUP:xbr	!	!	!	!	!	!	!
(6A-X	.	4.ryy	.	8ryy	.	4.ryy	.
.	.	.	.	8ryy	.	.	.
6c	.	.	.	.	.	.	.
.	.	.	.	8ryy	.	.	.
6A-)	.	.	.	.	.	.	.
.	.	8ryy	.	8ryy	.	8ryy	.
=89	=89	=89	=89	=89	=89	=89	=89
!LO:TUP:xbr	!	!	!	!	!	!	!
(6E-	<	2ryy	4ryy	8ryy	4ryy	2ryy	4ryy
.	.	.	.	8ryy	.	.	.
6B-	.	.	.	.	.	.	.
.	.	.	.	8ryy	.	.	.
6E-)	.	.	.	.	.	.	.
.	.	.	.	8ryy	.	.	.
*grp:B	*grp:B	*	*	*	*	*	*
4ryy	.	4ryy	.	8ryy	.	4ryy	.
.	.	.	.	8ryy	.	.	.
4ryy	.	4ryy	.	8ryy	.	4ryy	.
.	4ryy	.	4ryy	8ryy	4ryy	.	4ryy
=90	=90	=90	=90	=90	=90	=90	=90
1ryy	4ryy	8ryy	4ryy	8ryy	4ryy	1ryy	4ryy
.	.	8ryy	.	8ryy	.	.	.
.	.	8ryy	.	8ryy	.	.	.
.	.	8ryy	.	8ryy	.	.	.
.	.	8ryy	.	8ryy	.	.	.
.	.	8ryy	.	8ryy	.	.	.
.	.	8ryy	.	8ryy	.	.	.
.	.	8ryy	.	8ryy	.	.	.
=	=	=	=	=	=	=	=
*-	*-	*-	*-	*-	*-	*-	*-
!!!system-decoration: [(s1,s2,s3,s4)]
!!!RDF**kern: > = above
!!!RDF**kern: < = below
!!!EED: Daniel Wright
!!!EEV: 2021/10/15
